apps/site/public/icons/companies/prosperity.svg

<svg width="169" height="46" viewBox="0 0 169 46" fill="none" xmlns="http://www.w3.org/2000/svg">
<g clip-path="url(#clip0_1721_4764)">
<path d="M29.4001 43.9996L28.1001 44.3996C23.6001 45.5996 19.2001 44.9996 16.1001 44.0996C8.80006 41.8996 4.30006 36.6996 2.00006 31.4996C-0.799942 24.8996 0.300058 19.6996 0.600058 17.8996C-1.59994 31.8996 17.3001 47.5996 29.4001 43.9996ZM38.6001 33.6996C31.1001 35.4996 19.9001 29.5996 13.6001 20.4996C8.10006 11.9996 8.40006 3.79956 14.5001 1.39956C14.0001 1.59956 9.90006 3.09956 6.60006 6.39956C5.00006 7.99956 3.50006 9.79956 3.20006 13.2996C2.40006 28.1996 28.2001 48.7996 39.1001 37.9996C42.7001 34.3996 43.9001 30.6996 44.5001 28.8996C44.4001 28.8996 42.5001 33.0996 38.6001 33.6996ZM20.8001 15.4996C15.9001 8.49956 16.7001 1.69956 22.5001 0.299562C24.0001 -0.100439 25.7001 -0.000438124 27.5001 0.399562L28.6001 0.699563C30.2001 1.19956 30.2001 1.19956 31.1001 1.59956C32.5001 2.19956 32.5001 2.19956 33.3001 2.59956C34.6001 3.29956 34.6001 3.29956 35.2001 3.69956C36.4001 4.49956 36.4001 4.49956 36.9001 4.89956C38.0001 5.79956 38.0001 5.79956 38.5001 6.29956C39.5001 7.29956 39.5001 7.29956 40.0001 7.89956C40.9001 8.99956 41.0001 9.19956 41.4001 9.69956C41.7001 10.0996 42.0001 10.5996 42.2001 10.9996C43.0001 12.3996 43.0001 12.4996 43.4001 13.2996C43.7001 13.9996 44.0001 14.8996 44.3001 15.5996C45.9001 20.5996 44.4001 24.6996 40.1001 25.7996C34.2001 27.0996 25.6001 22.5996 20.8001 15.4996ZM28.1001 11.4996C30.8001 15.3996 35.6001 17.8996 38.8001 17.0996C42.0001 16.2996 42.4001 12.5996 39.7001 8.69956C37.0001 4.79956 32.2001 2.29956 29.0001 2.99956C25.8001 3.79956 25.4001 7.59956 28.1001 11.4996Z" fill="#80134E"/>
<path d="M67.9 12.4996H61V27.9996H63.8V21.7996H67.8C69.5 21.7996 70.8 21.3996 71.7 20.4996C72.6 19.6996 73 18.4996 73 17.0996C73 15.6996 72.6 14.4996 71.7 13.6996C70.9 12.8996 69.6 12.4996 67.9 12.4996ZM69.7 18.8996C69.2 19.2996 68.5 19.4996 67.6 19.4996H63.9V14.6996H67.6C68.5 14.6996 69.2 14.8996 69.7 15.2996C70.2 15.6996 70.4 16.2996 70.4 17.0996C70.4 17.8996 70.2 18.4996 69.7 18.8996ZM82.1 16.6996C82.3 16.6996 82.4 16.7996 82.6 16.7996V19.1996C82.3 19.0996 82.1 18.9996 81.9 18.9996C81.7 18.9996 81.5 18.9996 81.2 18.9996C80.6 18.9996 80 19.0996 79.6 19.3996C79.2 19.6996 78.8 19.9996 78.6 20.4996C78.4 20.9996 78.3 21.4996 78.3 22.0996V27.9996H75.5V19.6996C75.5 19.1996 75.5 18.7996 75.5 18.2996C75.5 17.7996 75.4 17.2996 75.4 16.8996H78L78.2 18.8996C78.3 18.5996 78.4 18.3996 78.6 18.0996C78.9 17.5996 79.4 17.2996 79.9 16.9996C80.4 16.7996 80.9 16.5996 81.5 16.5996C81.7 16.6996 81.9 16.6996 82.1 16.6996ZM92.2 17.3996C91.4 16.8996 90.4 16.6996 89.2 16.6996C88.1 16.6996 87.1 16.8996 86.2 17.3996C85.4 17.8996 84.7 18.4996 84.3 19.3996C83.8 20.2996 83.6 21.2996 83.6 22.4996C83.6 23.6996 83.8 24.6996 84.3 25.5996C84.8 26.4996 85.4 27.0996 86.2 27.5996C87 28.0996 88 28.2996 89.2 28.2996C90.3 28.2996 91.3 28.0996 92.2 27.5996C93 27.0996 93.7 26.4996 94.2 25.5996C94.7 24.6996 94.9 23.6996 94.9 22.4996C94.9 21.2996 94.7 20.2996 94.2 19.3996C93.7 18.4996 93 17.8996 92.2 17.3996ZM91.3 25.1996C90.8 25.7996 90.1 26.0996 89.2 26.0996C88.3 26.0996 87.6 25.7996 87.1 25.1996C86.6 24.5996 86.3 23.6996 86.3 22.3996C86.3 21.1996 86.6 20.2996 87.1 19.5996C87.6 18.8996 88.3 18.6996 89.2 18.6996C90.1 18.6996 90.8 18.9996 91.3 19.5996C91.8 20.1996 92.1 21.0996 92.1 22.3996C92 23.6996 91.8 24.5996 91.3 25.1996ZM105.3 22.7996C105.8 23.2996 106.1 23.8996 106.1 24.6996C106.1 25.3996 105.9 26.0996 105.5 26.5996C105.1 27.0996 104.6 27.4996 103.9 27.7996C103.2 28.0996 102.4 28.1996 101.4 28.1996C100.4 28.1996 99.6 28.0996 98.8 27.8996C98 27.6996 97.3 27.3996 96.8 26.8996L97.6 25.0996C98.2 25.4996 98.8 25.7996 99.4 25.9996C100.1 26.1996 100.8 26.2996 101.4 26.2996C102.1 26.2996 102.7 26.1996 103 25.8996C103.4 25.6996 103.5 25.2996 103.5 24.8996C103.5 24.5996 103.4 24.2996 103.2 24.0996C103 23.8996 102.6 23.7996 102.1 23.5996L99.9 23.1996C99 22.9996 98.2 22.5996 97.8 22.0996C97.4 21.5996 97.1 20.8996 97.1 20.0996C97.1 19.3996 97.3 18.7996 97.7 18.2996C98.1 17.7996 98.6 17.3996 99.3 17.0996C100 16.7996 100.8 16.5996 101.8 16.5996C102.6 16.5996 103.4 16.6996 104.1 16.8996C104.8 17.0996 105.4 17.3996 105.9 17.8996L105.1 19.6996C104.6 19.2996 104.1 18.9996 103.5 18.7996C102.9 18.5996 102.3 18.4996 101.8 18.4996C101 18.4996 100.5 18.5996 100.1 18.8996C99.7 19.1996 99.6 19.4996 99.6 19.8996C99.6 20.1996 99.7 20.4996 99.9 20.6996C100.1 20.8996 100.4 21.0996 100.9 21.1996L103.1 21.5996C104.1 21.9996 104.8 22.2996 105.3 22.7996ZM117.6 17.3996C116.9 16.8996 116 16.6996 115 16.6996C114.1 16.6996 113.2 16.8996 112.5 17.3996C111.9 17.7996 111.5 18.1996 111.3 18.7996L111.1 16.9996H108.4C108.5 17.4996 108.5 17.8996 108.5 18.3996C108.5 18.8996 108.5 19.2996 108.5 19.7996V32.8996H111.3V26.3996C111.6 26.8996 112 27.2996 112.5 27.5996C113.2 28.0996 114 28.2996 114.9 28.2996C115.9 28.2996 116.7 28.0996 117.5 27.5996C118.3 27.0996 118.8 26.4996 119.2 25.5996C119.6 24.6996 119.8 23.6996 119.8 22.4996C119.8 21.2996 119.6 20.2996 119.2 19.3996C118.9 18.4996 118.3 17.7996 117.6 17.3996ZM116.4 25.1996C115.9 25.7996 115.2 26.0996 114.3 26.0996C113.4 26.0996 112.7 25.7996 112.2 25.1996C111.7 24.5996 111.4 23.6996 111.4 22.3996C111.4 21.1996 111.7 20.2996 112.2 19.5996C112.7 18.8996 113.4 18.6996 114.3 18.6996C115.2 18.6996 115.9 18.9996 116.4 19.5996C116.9 20.1996 117.2 21.0996 117.2 22.3996C117.2 23.6996 116.9 24.5996 116.4 25.1996ZM130 17.3996C129.3 16.8996 128.4 16.6996 127.3 16.6996C126.2 16.6996 125.3 16.8996 124.5 17.3996C123.7 17.8996 123.1 18.5996 122.6 19.3996C122.1 20.2996 121.9 21.2996 121.9 22.3996C121.9 24.1996 122.4 25.5996 123.5 26.5996C124.6 27.5996 126 28.0996 127.9 28.0996C128.7 28.0996 129.5 27.9996 130.2 27.6996C130.9 27.3996 131.6 27.0996 132.1 26.6996L131.3 24.8996C130.8 25.2996 130.3 25.5996 129.7 25.6996C129.1 25.7996 128.6 25.9996 127.9 25.9996C126.8 25.9996 126 25.6996 125.4 25.0996C124.9 24.5996 124.6 23.7996 124.5 22.7996H132.2V22.0996C132.2 20.9996 132 19.9996 131.6 19.1996C131.2 18.3996 130.8 17.7996 130 17.3996ZM127.4 18.5996C128.2 18.5996 128.8 18.8996 129.3 19.3996C129.7 19.8996 129.9 20.5996 129.9 21.3996H124.6C124.7 20.5996 124.9 19.9996 125.3 19.4996C125.8 18.8996 126.5 18.5996 127.4 18.5996ZM141.4 16.6996C141.6 16.6996 141.7 16.7996 141.9 16.7996V19.1996C141.6 19.0996 141.4 18.9996 141.2 18.9996C141 18.9996 140.8 18.9996 140.5 18.9996C139.9 18.9996 139.3 19.0996 138.9 19.3996C138.5 19.6996 138.1 19.9996 137.9 20.4996C137.7 20.9996 137.6 21.4996 137.6 22.0996V27.9996H134.8V19.6996C134.8 19.1996 134.8 18.7996 134.8 18.2996C134.8 17.7996 134.7 17.2996 134.7 16.8996H137.4L137.6 18.8996C137.7 18.5996 137.8 18.3996 138 18.0996C138.3 17.5996 138.8 17.2996 139.3 16.9996C139.8 16.7996 140.3 16.5996 140.9 16.5996C141 16.6996 141.3 16.6996 141.4 16.6996ZM143.5 12.0996H146.6V14.7996H143.5V12.0996ZM143.7 16.8996H146.5V27.9996H143.7V16.8996ZM153.1 16.8996H156.1V18.9996H153.1V23.9996C153.1 24.7996 153.2 25.2996 153.5 25.5996C153.8 25.8996 154.2 26.0996 154.7 26.0996C155 26.0996 155.2 26.0996 155.4 25.9996C155.6 25.9996 155.8 25.8996 156 25.7996V27.9996C155.8 28.0996 155.5 28.1996 155.2 28.1996C154.9 28.2996 154.6 28.2996 154.3 28.2996C153 28.2996 152 27.9996 151.3 27.2996C150.6 26.5996 150.3 25.5996 150.3 24.1996V18.9996H148.2V16.8996H150.3V14.0996L153.1 13.3996V16.8996ZM168.9 16.8996L163.8 28.5996C163.5 29.3996 163.1 29.9996 162.7 30.5996C162.3 31.0996 161.9 31.4996 161.4 31.8996C160.9 32.1996 160.4 32.4996 159.9 32.5996C159.4 32.7996 158.8 32.8996 158.1 32.9996L157.5 30.7996C158.2 30.6996 158.8 30.4996 159.2 30.2996C159.7 30.0996 160.1 29.8996 160.4 29.5996C160.7 29.2996 161 28.8996 161.2 28.3996L161.5 27.6996L156.9 16.8996H159.8L163 24.7996L166.2 16.8996H168.9Z" fill="#fff"/>
</g>
<defs>
<clipPath id="clip0_1721_4764">
<rect width="169" height="46" fill="white"/>
</clipPath>
</defs>
</svg>

<svg xmlns="http://www.w3.org/2000/svg" width="169" height="46" fill="none" viewBox="0 0 169 46"><g clip-path="url(#a)"><path fill="#80134e" d="m29.4 44-1.3.4c-4.5 1.2-8.9.6-12-.3C8.8 41.9 4.3 36.7 2 31.5-.8 24.9.3 19.7.6 17.9c-2.2 14 16.7 29.7 28.8 26.1m9.2-10.3c-7.5 1.8-18.7-4.1-25-13.2-5.5-8.5-5.2-16.7.9-19.1-.5.2-4.6 1.7-7.9 5C5 8 3.5 9.8 3.2 13.3c-.8 14.9 25 35.5 35.9 24.7 3.6-3.6 4.8-7.3 5.4-9.1-.1 0-2 4.2-5.9 4.8M20.8 15.5c-4.9-7-4.1-13.8 1.7-15.2 1.5-.4 3.2-.3 5 .1l1.1.3c1.6.5 1.6.5 2.5.9 1.4.6 1.4.6 2.2 1 1.3.7 1.3.7 1.9 1.1 1.2.8 1.2.8 1.7 1.2 1.1.9 1.1.9 1.6 1.4 1 1 1 1 1.5 1.6.9 1.1 1 1.3 1.4 1.8.3.4.6.9.8 1.3.8 1.4.8 1.5 1.2 2.3.3.7.6 1.6.9 2.3 1.6 5 .1 9.1-4.2 10.2-5.9 1.3-14.5-3.2-19.3-10.3m7.3-4c2.7 3.9 7.5 6.4 10.7 5.6s3.6-4.5.9-8.4S32.2 2.3 29 3c-3.2.8-3.6 4.6-.9 8.5"/><path fill="#fff" d="M67.9 12.5H61V28h2.8v-6.2h4c1.7 0 3-.4 3.9-1.3.9-.8 1.3-2 1.3-3.4s-.4-2.6-1.3-3.4c-.8-.8-2.1-1.2-3.8-1.2m1.8 6.4q-.75.6-2.1.6h-3.7v-4.8h3.7q1.35 0 2.1.6c.5.4.7 1 .7 1.8s-.2 1.4-.7 1.8m12.4-2.2c.2 0 .3.1.5.1v2.4c-.3-.1-.5-.2-.7-.2h-.7c-.6 0-1.2.1-1.6.4s-.8.6-1 1.1-.3 1-.3 1.6V28h-2.8v-9.7c0-.5-.1-1-.1-1.4H78l.2 2c.1-.3.2-.5.4-.8.3-.5.8-.8 1.3-1.1.5-.2 1-.4 1.6-.4.2.1.4.1.6.1m10.1.7c-.8-.5-1.8-.7-3-.7-1.1 0-2.1.2-3 .7-.8.5-1.5 1.1-1.9 2-.5.9-.7 1.9-.7 3.1s.2 2.2.7 3.1 1.1 1.5 1.9 2 1.8.7 3 .7c1.1 0 2.1-.2 3-.7.8-.5 1.5-1.1 2-2s.7-1.9.7-3.1-.2-2.2-.7-3.1-1.2-1.5-2-2m-.9 7.8q-.75.9-2.1.9t-2.1-.9c-.5-.6-.8-1.5-.8-2.8 0-1.2.3-2.1.8-2.8s1.2-.9 2.1-.9q1.35 0 2.1.9c.5.6.8 1.5.8 2.8-.1 1.3-.3 2.2-.8 2.8m14-2.4c.5.5.8 1.1.8 1.9 0 .7-.2 1.4-.6 1.9s-.9.9-1.6 1.2-1.5.4-2.5.4-1.8-.1-2.6-.3-1.5-.5-2-1l.8-1.8q.9.6 1.8.9c.7.2 1.4.3 2 .3.7 0 1.3-.1 1.6-.4.4-.2.5-.6.5-1 0-.3-.1-.6-.3-.8s-.6-.3-1.1-.5l-2.2-.4c-.9-.2-1.7-.6-2.1-1.1s-.7-1.2-.7-2q0-1.05.6-1.8c.4-.5.9-.9 1.6-1.2s1.5-.5 2.5-.5c.8 0 1.6.1 2.3.3s1.3.5 1.8 1l-.8 1.8c-.5-.4-1-.7-1.6-.9s-1.2-.3-1.7-.3c-.8 0-1.3.1-1.7.4s-.5.6-.5 1c0 .3.1.6.3.8s.5.4 1 .5l2.2.4c1 .4 1.7.7 2.2 1.2m12.3-5.4c-.7-.5-1.6-.7-2.6-.7-.9 0-1.8.2-2.5.7-.6.4-1 .8-1.2 1.4l-.2-1.8h-2.7c.1.5.1.9.1 1.4v14.5h2.8v-6.5q.45.75 1.2 1.2c.7.5 1.5.7 2.4.7 1 0 1.8-.2 2.6-.7s1.3-1.1 1.7-2 .6-1.9.6-3.1-.2-2.2-.6-3.1c-.3-.9-.9-1.6-1.6-2m-1.2 7.8q-.75.9-2.1.9t-2.1-.9c-.5-.6-.8-1.5-.8-2.8 0-1.2.3-2.1.8-2.8s1.2-.9 2.1-.9q1.35 0 2.1.9c.5.6.8 1.5.8 2.8s-.3 2.2-.8 2.8m13.6-7.8c-.7-.5-1.6-.7-2.7-.7s-2 .2-2.8.7-1.4 1.2-1.9 2c-.5.9-.7 1.9-.7 3 0 1.8.5 3.2 1.6 4.2s2.5 1.5 4.4 1.5c.8 0 1.6-.1 2.3-.4s1.4-.6 1.9-1l-.8-1.8c-.5.4-1 .7-1.6.8s-1.1.3-1.8.3c-1.1 0-1.9-.3-2.5-.9-.5-.5-.8-1.3-.9-2.3h7.7v-.7c0-1.1-.2-2.1-.6-2.9s-.8-1.4-1.6-1.8m-2.6 1.2c.8 0 1.4.3 1.9.8.4.5.6 1.2.6 2h-5.3c.1-.8.3-1.4.7-1.9q.75-.9 2.1-.9m14-1.9c.2 0 .3.1.5.1v2.4c-.3-.1-.5-.2-.7-.2h-.7c-.6 0-1.2.1-1.6.4s-.8.6-1 1.1-.3 1-.3 1.6V28h-2.8v-9.7c0-.5-.1-1-.1-1.4h2.7l.2 2c.1-.3.2-.5.4-.8.3-.5.8-.8 1.3-1.1.5-.2 1-.4 1.6-.4.1.1.4.1.5.1m2.1-4.6h3.1v2.7h-3.1zm.2 4.8h2.8V28h-2.8zm9.4 0h3V19h-3v5c0 .8.1 1.3.4 1.6s.7.5 1.2.5c.3 0 .5 0 .7-.1.2 0 .4-.1.6-.2V28c-.2.1-.5.2-.8.2-.3.1-.6.1-.9.1-1.3 0-2.3-.3-3-1s-1-1.7-1-3.1V19h-2.1v-2.1h2.1v-2.8l2.8-.7zm15.8 0-5.1 11.7c-.3.8-.7 1.4-1.1 2-.4.5-.8.9-1.3 1.3-.5.3-1 .6-1.5.7-.5.2-1.1.3-1.8.4l-.6-2.2c.7-.1 1.3-.3 1.7-.5.5-.2.9-.4 1.2-.7s.6-.7.8-1.2l.3-.7-4.6-10.8h2.9l3.2 7.9 3.2-7.9z"/></g><defs><clipPath id="a"><path fill="#fff" d="M0 0h169v46H0z"/></clipPath></defs></svg>
